src/resources/assets/flag.svg

<svg xmlns="http://www.w3.org/2000/svg" width="16" height="16"><path d="M 4 9 L 4 3 L 12.027344 3 L 10.09375 5.710938 C 9.96875 5.882812 9.96875 6.117188 10.09375 6.289062 L 12.027344 9 Z M 4 10 L 13 10 C 13.40625 10 13.644531 9.539062 13.40625 9.210938 L 11.113281 6 L 13.40625 2.789062 C 13.644531 2.460938 13.40625 2 13 2 L 3.5 2 C 3.222656 2 3 2.222656 3 2.5 L 3 13.5 C 3 13.777344 3.222656 14 3.5 14 C 3.777344 14 4 13.777344 4 13.5 Z M 4 10" fill="#ddd"/></svg>

<svg xmlns="http://www.w3.org/2000/svg" width="16" height="16"><path d="M4 9V3h8.027l-1.933 2.71a.493.493 0 000 .58L12.027 9zm0 1h9c.406 0 .645-.46.406-.79L11.113 6l2.293-3.21A.499.499 0 0013 2H3.5c-.277 0-.5.223-.5.5v11c0 .277.223.5.5.5s.5-.223.5-.5zm0 0" fill="#ddd"/></svg>
